report_00007_2020-12-11T15:55:29.892Z/bootup-time/comparison/line/6_vs_7.svg

<svg width="640" height="500" xmlns="http://www.w3.org/2000/svg" xmlns:xlink="http://www.w3.org/1999/xlink"><path fill="#fff" d="M0 0h640v500H0z"/><defs><path id="d" stroke-width=".222" stroke="currentColor" d="M-1-1h2v2h-2z"/><path id="b" stroke-width=".222" stroke="currentColor" d="M0-1.33l-1.33 2h2.66z"/><path id="f" stroke-width=".222" stroke="currentColor" d="M0 1.33L1.265.411.782-1.067l-1.564-.009-.483 1.487z"/><use xlink:href="#b" id="c" stroke="currentColor" transform="rotate(180)"/><use xlink:href="#d" id="e" stroke="currentColor" transform="rotate(45)"/><circle id="a" stroke-width=".222" stroke="currentColor" cx="0" cy="0" r="1"/></defs><g fill="none" color="#000" stroke="currentColor"><path stroke="#000" d="M45.6 359.1h9m560.4 0h-9"/><text transform="translate(37.3 363)" stroke="none" fill="#000" font-family="Arial" font-size="12" text-anchor="end"><tspan>38</tspan></text></g><g fill="none" color="#000" stroke="currentColor"><path stroke="#000" d="M45.6 311.8h9m560.4 0h-9"/><text transform="translate(37.3 315.7)" stroke="none" fill="#000" font-family="Arial" font-size="12" text-anchor="end"><tspan>40</tspan></text></g><g fill="none" color="#000" stroke="currentColor"><path stroke="#000" d="M45.6 264.4h9m560.4 0h-9"/><text transform="translate(37.3 268.3)" stroke="none" fill="#000" font-family="Arial" font-size="12" text-anchor="end"><tspan>42</tspan></text></g><g fill="none" color="#000" stroke="currentColor"><path stroke="#000" d="M45.6 217h9m560.4 0h-9"/><text transform="translate(37.3 220.9)" stroke="none" fill="#000" font-family="Arial" font-size="12" text-anchor="end"><tspan>44</tspan></text></g><g fill="none" color="#000" stroke="currentColor"><path stroke="#000" d="M45.6 169.7h9m560.4 0h-9"/><text transform="translate(37.3 173.6)" stroke="none" fill="#000" font-family="Arial" font-size="12" text-anchor="end"><tspan>46</tspan></text></g><g fill="none" color="#000" stroke="currentColor"><path stroke="#000" d="M45.6 122.3h9m560.4 0h-9"/><text transform="translate(37.3 126.2)" stroke="none" fill="#000" font-family="Arial" font-size="12" text-anchor="end"><tspan>48</tspan></text></g><g fill="none" color="#000" stroke="currentColor"><path stroke="#000" d="M45.6 74.9h9m560.4 0h-9"/><text transform="translate(37.3 78.8)" stroke="none" fill="#000" font-family="Arial" font-size="12" text-anchor="end"><tspan>50</tspan></text></g><g fill="none" color="#000" stroke="currentColor"><path stroke="#000" d="M45.6 27.6h9m560.4 0h-9"/><text transform="translate(37.3 31.5)" stroke="none" fill="#000" font-family="Arial" font-size="12" text-anchor="end"><tspan>52</tspan></text></g><g fill="none" color="#000" stroke="currentColor"><path stroke="#000" d="M45.6 392v-9m0-364.9v9"/><text transform="translate(45.6 413.9)" stroke="none" fill="#000" font-family="Arial" font-size="12" text-anchor="middle"><tspan>0</tspan></text></g><g fill="none" color="#000" stroke="currentColor"><path stroke="#000" d="M103.1 392v-9m0-364.9v9"/><text transform="translate(103.1 413.9)" stroke="none" fill="#000" font-family="Arial" font-size="12" text-anchor="middle"><tspan>10</tspan></text></g><g fill="none" color="#000" stroke="currentColor"><path stroke="#000" d="M160.6 392v-9m0-364.9v9"/><text transform="translate(160.6 413.9)" stroke="none" fill="#000" font-family="Arial" font-size="12" text-anchor="middle"><tspan>20</tspan></text></g><g fill="none" color="#000" stroke="currentColor"><path stroke="#000" d="M218.1 392v-9m0-364.9v9"/><text transform="translate(218.1 413.9)" stroke="none" fill="#000" font-family="Arial" font-size="12" text-anchor="middle"><tspan>30</tspan></text></g><g fill="none" color="#000" stroke="currentColor"><path stroke="#000" d="M275.7 392v-9m0-364.9v9"/><text transform="translate(275.7 413.9)" stroke="none" fill="#000" font-family="Arial" font-size="12" text-anchor="middle"><tspan>40</tspan></text></g><g fill="none" color="#000" stroke="currentColor"><path stroke="#000" d="M333.2 392v-9m0-364.9v9"/><text transform="translate(333.2 413.9)" stroke="none" fill="#000" font-family="Arial" font-size="12" text-anchor="middle"><tspan>50</tspan></text></g><g fill="none" color="#000" stroke="currentColor"><path stroke="#000" d="M390.7 392v-9m0-364.9v9"/><text transform="translate(390.7 413.9)" stroke="none" fill="#000" font-family="Arial" font-size="12" text-anchor="middle"><tspan>60</tspan></text></g><g fill="none" color="#000" stroke="currentColor"><path stroke="#000" d="M448.2 392v-9m0-364.9v9"/><text transform="translate(448.2 413.9)" stroke="none" fill="#000" font-family="Arial" font-size="12" text-anchor="middle"><tspan>70</tspan></text></g><g fill="none" color="#000" stroke="currentColor"><path stroke="#000" d="M505.7 392v-9m0-364.9v9"/><text transform="translate(505.7 413.9)" stroke="none" fill="#000" font-family="Arial" font-size="12" text-anchor="middle"><tspan>80</tspan></text></g><g fill="none" color="#000" stroke="currentColor"><path stroke="#000" d="M563.2 392v-9m0-364.9v9"/><text transform="translate(563.2 413.9)" stroke="none" fill="#000" font-family="Arial" font-size="12" text-anchor="middle"><tspan>90</tspan></text></g><path stroke="#000" d="M45.6 18.1V392H615V18.1H45.6z" fill="none" color="#000"/><text transform="translate(429.5 431.9)" stroke="none" fill="#000" font-family="Arial" font-size="12" text-anchor="end" color="#000"><tspan>pages+cached+noexternal+nofonts</tspan></text><path stroke="#9400D3" d="M437.8 428H480M45.6 173.6l5.8 32.9 5.7-21.2 5.8-21.7 5.7 36.8 5.8 6.7 5.7-32.6 5.8 4.6 5.7 5.1 5.8 15.2 5.7-36.6 5.8 13.1 5.7 14.1 5.8 2.5 5.7-3.4 5.8-.4 5.7-1.3 5.8 7 5.7-30.4 5.8 22.7 5.7 40.3 5.8-20.2 5.7 106.8 5.8-133.4 5.7-12.3 5.8-1.5 5.7 3.9 5.8 37.3 5.7 7 5.8-2.7 5.7-8.5 5.8 1.9 5.7 6.3 5.8-57 5.8 77.5 5.7-59.7 5.8 30.5 5.7 13.2 5.8-52.9 5.7 53.5 5.8-14.7 5.7-69.4 5.8 87.1 5.7-26.7 5.8 23.9 5.7-4.9 5.8-12.3 5.7-16.4 5.8 36.2 5.7-50.8 5.8 28.3 5.7 42.9 5.8-38.5 5.7-21.6 5.8 6.4 5.7-49.3 5.8 22.3 5.7 50.5 5.8-27.8 5.7 14.7 5.8 37 5.7 29.9 5.8-94.1 5.7 31.7 5.8-54.5 5.7 57.4 5.8-40 5.8 52.2 5.7 3.6 5.8-32.2 5.7 35L454 177l5.7-55.2 5.8 90.2 5.7 11.1 5.8-33.9 5.7-6 5.8 26.7 5.7.2 5.8-62.5 5.7 46.7 5.8 4.7 5.7 20.1 5.8-13.2 5.7-3.1 5.8-45.7 5.7 16.7 5.8 7.1 5.7 36.2 5.8 34.4 5.7-59.1 5.8-28.9 5.7 58.1 5.8 3.3 5.7 21.7 5.8-71 5.7-89.5 5.8 112.7 5.7 5.2 5.8 4" fill="none" color="#000"/><text transform="translate(429.5 449.9)" stroke="none" fill="#000" font-family="Arial" font-size="12" text-anchor="end" color="#000"><tspan>pages+cached+noexternal+nosvg</tspan></text><path stroke="#009E73" d="M437.8 446H480M45.6 331.7l5.8-8.8 5.7-25.4 5.8 13.8 5.7 57.6 5.8-45.3 5.7 28.4 5.8-13 5.7 10.8 5.8-4.3 5.7 6.7 5.8-326.9 5.7 318.5 5.8-1.1 5.7-29 5.8-1.2 5.7 21.7 5.8 10.5 5.7 7.3 5.8 8.4 5.7-6.1 5.8-10.6 5.7 20.8 5.8-48.6 5.7 44.6 5.8-21.1 5.7-23.9 5.8 24.3 5.7 7.1 5.8 37.9 5.7-17.6 5.8-19.5 5.7-20 5.8 3.2 5.8 30.6 5.7-38.7 5.8-30.7 5.7 10.5 5.8 42.5 5.7 20.1 5.8-40.5 5.7-16.7 5.8 42.4 5.7 7.7 5.8 4.9 5.7-2.9 5.8-28.2 5.7-9.5 5.8 23 5.7-21.8 5.8 17.3 5.7-65.4 5.8 78.6 5.7-15.7 5.8 10.1 5.7-74.9 5.8 59.3 5.7 4.1 5.8-21.2 5.7 20.3 5.8-25.7 5.7 58 5.8-38.1 5.7-15 5.8 15.4 5.7 6.6 5.8 8.6L431 292l5.7 51.3 5.8-42 5.7 50.6 5.8-3.1 5.7 19 5.8-56.9 5.7 31.6 5.8-6 5.7 15.3 5.8.8 5.7-13.1 5.8-9.5 5.7-18.5 5.8 20.5 5.7 5 5.8 6 5.7-17.4 5.8 23.8 5.7-.5 5.8-20.6 5.7.3 5.8 43.2 5.7-32.7 5.8 16.3 5.7-34.1 5.8 25.7 5.7 17.1L592 310l5.7 36.6 5.8 2 5.7-13.4 5.8-3.1" fill="none" color="#000"/><text transform="translate(429.5 467.9)" stroke="none" fill="#000" font-family="Arial" font-size="12" text-anchor="end" color="#000"><tspan>score p10=1282</tspan></text><path stroke="#56B4E9" d="M437.8 464H480" fill="none" color="#000"/><g><text transform="translate(429.5 485.9)" stroke="none" fill="#000" font-family="Arial" font-size="12" text-anchor="end" color="#000"><tspan>score median=3500</tspan></text><path stroke="#E69F00" d="M437.8 482H480" fill="none" color="#000"/></g><g fill="none" color="#000" stroke="currentColor"><path stroke="#000" d="M45.6 18.1V392H615V18.1H45.6z"/></g></svg>

<?xml version="1.0" encoding="utf-8"  standalone="no"?>
<svg 
 width="640" height="500"
 viewBox="0 0 640 500"
 xmlns="http://www.w3.org/2000/svg"
 xmlns:xlink="http://www.w3.org/1999/xlink"
>

<title>Gnuplot</title>
<desc>Produced by GNUPLOT 5.4 patchlevel 0 </desc>

<g id="gnuplot_canvas">

<rect x="0" y="0" width="640" height="500" fill="#ffffff"/>
<defs>

	<circle id='gpDot' r='0.5' stroke-width='0.5' stroke='currentColor'/>
	<path id='gpPt0' stroke-width='0.222' stroke='currentColor' d='M-1,0 h2 M0,-1 v2'/>
	<path id='gpPt1' stroke-width='0.222' stroke='currentColor' d='M-1,-1 L1,1 M1,-1 L-1,1'/>
	<path id='gpPt2' stroke-width='0.222' stroke='currentColor' d='M-1,0 L1,0 M0,-1 L0,1 M-1,-1 L1,1 M-1,1 L1,-1'/>
	<rect id='gpPt3' stroke-width='0.222' stroke='currentColor' x='-1' y='-1' width='2' height='2'/>
	<rect id='gpPt4' stroke-width='0.222' stroke='currentColor' fill='currentColor' x='-1' y='-1' width='2' height='2'/>
	<circle id='gpPt5' stroke-width='0.222' stroke='currentColor' cx='0' cy='0' r='1'/>
	<use xlink:href='#gpPt5' id='gpPt6' fill='currentColor' stroke='none'/>
	<path id='gpPt7' stroke-width='0.222' stroke='currentColor' d='M0,-1.33 L-1.33,0.67 L1.33,0.67 z'/>
	<use xlink:href='#gpPt7' id='gpPt8' fill='currentColor' stroke='none'/>
	<use xlink:href='#gpPt7' id='gpPt9' stroke='currentColor' transform='rotate(180)'/>
	<use xlink:href='#gpPt9' id='gpPt10' fill='currentColor' stroke='none'/>
	<use xlink:href='#gpPt3' id='gpPt11' stroke='currentColor' transform='rotate(45)'/>
	<use xlink:href='#gpPt11' id='gpPt12' fill='currentColor' stroke='none'/>
	<path id='gpPt13' stroke-width='0.222' stroke='currentColor' d='M0,1.330 L1.265,0.411 L0.782,-1.067 L-0.782,-1.076 L-1.265,0.411 z'/>
	<use xlink:href='#gpPt13' id='gpPt14' fill='currentColor' stroke='none'/>
	<filter id='textbox' filterUnits='objectBoundingBox' x='0' y='0' height='1' width='1'>
	  <feFlood flood-color='#FFFFFF' flood-opacity='1' result='bgnd'/>
	  <feComposite in='SourceGraphic' in2='bgnd' operator='atop'/>
	</filter>
	<filter id='greybox' filterUnits='objectBoundingBox' x='0' y='0' height='1' width='1'>
	  <feFlood flood-color='lightgrey' flood-opacity='1' result='grey'/>
	  <feComposite in='SourceGraphic' in2='grey' operator='atop'/>
	</filter>
</defs>
<g fill="none" color="#FFFFFF" stroke="currentColor" stroke-width="1.00" stroke-linecap="butt" stroke-linejoin="miter">
</g>
<g fill="none" color="black" stroke="currentColor" stroke-width="1.00" stroke-linecap="butt" stroke-linejoin="miter">
	<path stroke='black'  d='M45.6,359.1 L54.6,359.1 M615.0,359.1 L606.0,359.1  '/>	<g transform="translate(37.3,363.0)" stroke="none" fill="black" font-family="Arial" font-size="12.00"  text-anchor="end">
		<text><tspan font-family="Arial" > 38</tspan></text>
	</g>
</g>
<g fill="none" color="black" stroke="currentColor" stroke-width="1.00" stroke-linecap="butt" stroke-linejoin="miter">
	<path stroke='black'  d='M45.6,311.8 L54.6,311.8 M615.0,311.8 L606.0,311.8  '/>	<g transform="translate(37.3,315.7)" stroke="none" fill="black" font-family="Arial" font-size="12.00"  text-anchor="end">
		<text><tspan font-family="Arial" > 40</tspan></text>
	</g>
</g>
<g fill="none" color="black" stroke="currentColor" stroke-width="1.00" stroke-linecap="butt" stroke-linejoin="miter">
	<path stroke='black'  d='M45.6,264.4 L54.6,264.4 M615.0,264.4 L606.0,264.4  '/>	<g transform="translate(37.3,268.3)" stroke="none" fill="black" font-family="Arial" font-size="12.00"  text-anchor="end">
		<text><tspan font-family="Arial" > 42</tspan></text>
	</g>
</g>
<g fill="none" color="black" stroke="currentColor" stroke-width="1.00" stroke-linecap="butt" stroke-linejoin="miter">
	<path stroke='black'  d='M45.6,217.0 L54.6,217.0 M615.0,217.0 L606.0,217.0  '/>	<g transform="translate(37.3,220.9)" stroke="none" fill="black" font-family="Arial" font-size="12.00"  text-anchor="end">
		<text><tspan font-family="Arial" > 44</tspan></text>
	</g>
</g>
<g fill="none" color="black" stroke="currentColor" stroke-width="1.00" stroke-linecap="butt" stroke-linejoin="miter">
	<path stroke='black'  d='M45.6,169.7 L54.6,169.7 M615.0,169.7 L606.0,169.7  '/>	<g transform="translate(37.3,173.6)" stroke="none" fill="black" font-family="Arial" font-size="12.00"  text-anchor="end">
		<text><tspan font-family="Arial" > 46</tspan></text>
	</g>
</g>
<g fill="none" color="black" stroke="currentColor" stroke-width="1.00" stroke-linecap="butt" stroke-linejoin="miter">
	<path stroke='black'  d='M45.6,122.3 L54.6,122.3 M615.0,122.3 L606.0,122.3  '/>	<g transform="translate(37.3,126.2)" stroke="none" fill="black" font-family="Arial" font-size="12.00"  text-anchor="end">
		<text><tspan font-family="Arial" > 48</tspan></text>
	</g>
</g>
<g fill="none" color="black" stroke="currentColor" stroke-width="1.00" stroke-linecap="butt" stroke-linejoin="miter">
	<path stroke='black'  d='M45.6,74.9 L54.6,74.9 M615.0,74.9 L606.0,74.9  '/>	<g transform="translate(37.3,78.8)" stroke="none" fill="black" font-family="Arial" font-size="12.00"  text-anchor="end">
		<text><tspan font-family="Arial" > 50</tspan></text>
	</g>
</g>
<g fill="none" color="black" stroke="currentColor" stroke-width="1.00" stroke-linecap="butt" stroke-linejoin="miter">
	<path stroke='black'  d='M45.6,27.6 L54.6,27.6 M615.0,27.6 L606.0,27.6  '/>	<g transform="translate(37.3,31.5)" stroke="none" fill="black" font-family="Arial" font-size="12.00"  text-anchor="end">
		<text><tspan font-family="Arial" > 52</tspan></text>
	</g>
</g>
<g fill="none" color="black" stroke="currentColor" stroke-width="1.00" stroke-linecap="butt" stroke-linejoin="miter">
	<path stroke='black'  d='M45.6,392.0 L45.6,383.0 M45.6,18.1 L45.6,27.1  '/>	<g transform="translate(45.6,413.9)" stroke="none" fill="black" font-family="Arial" font-size="12.00"  text-anchor="middle">
		<text><tspan font-family="Arial" > 0</tspan></text>
	</g>
</g>
<g fill="none" color="black" stroke="currentColor" stroke-width="1.00" stroke-linecap="butt" stroke-linejoin="miter">
	<path stroke='black'  d='M103.1,392.0 L103.1,383.0 M103.1,18.1 L103.1,27.1  '/>	<g transform="translate(103.1,413.9)" stroke="none" fill="black" font-family="Arial" font-size="12.00"  text-anchor="middle">
		<text><tspan font-family="Arial" > 10</tspan></text>
	</g>
</g>
<g fill="none" color="black" stroke="currentColor" stroke-width="1.00" stroke-linecap="butt" stroke-linejoin="miter">
	<path stroke='black'  d='M160.6,392.0 L160.6,383.0 M160.6,18.1 L160.6,27.1  '/>	<g transform="translate(160.6,413.9)" stroke="none" fill="black" font-family="Arial" font-size="12.00"  text-anchor="middle">
		<text><tspan font-family="Arial" > 20</tspan></text>
	</g>
</g>
<g fill="none" color="black" stroke="currentColor" stroke-width="1.00" stroke-linecap="butt" stroke-linejoin="miter">
	<path stroke='black'  d='M218.1,392.0 L218.1,383.0 M218.1,18.1 L218.1,27.1  '/>	<g transform="translate(218.1,413.9)" stroke="none" fill="black" font-family="Arial" font-size="12.00"  text-anchor="middle">
		<text><tspan font-family="Arial" > 30</tspan></text>
	</g>
</g>
<g fill="none" color="black" stroke="currentColor" stroke-width="1.00" stroke-linecap="butt" stroke-linejoin="miter">
	<path stroke='black'  d='M275.7,392.0 L275.7,383.0 M275.7,18.1 L275.7,27.1  '/>	<g transform="translate(275.7,413.9)" stroke="none" fill="black" font-family="Arial" font-size="12.00"  text-anchor="middle">
		<text><tspan font-family="Arial" > 40</tspan></text>
	</g>
</g>
<g fill="none" color="black" stroke="currentColor" stroke-width="1.00" stroke-linecap="butt" stroke-linejoin="miter">
	<path stroke='black'  d='M333.2,392.0 L333.2,383.0 M333.2,18.1 L333.2,27.1  '/>	<g transform="translate(333.2,413.9)" stroke="none" fill="black" font-family="Arial" font-size="12.00"  text-anchor="middle">
		<text><tspan font-family="Arial" > 50</tspan></text>
	</g>
</g>
<g fill="none" color="black" stroke="currentColor" stroke-width="1.00" stroke-linecap="butt" stroke-linejoin="miter">
	<path stroke='black'  d='M390.7,392.0 L390.7,383.0 M390.7,18.1 L390.7,27.1  '/>	<g transform="translate(390.7,413.9)" stroke="none" fill="black" font-family="Arial" font-size="12.00"  text-anchor="middle">
		<text><tspan font-family="Arial" > 60</tspan></text>
	</g>
</g>
<g fill="none" color="black" stroke="currentColor" stroke-width="1.00" stroke-linecap="butt" stroke-linejoin="miter">
	<path stroke='black'  d='M448.2,392.0 L448.2,383.0 M448.2,18.1 L448.2,27.1  '/>	<g transform="translate(448.2,413.9)" stroke="none" fill="black" font-family="Arial" font-size="12.00"  text-anchor="middle">
		<text><tspan font-family="Arial" > 70</tspan></text>
	</g>
</g>
<g fill="none" color="black" stroke="currentColor" stroke-width="1.00" stroke-linecap="butt" stroke-linejoin="miter">
	<path stroke='black'  d='M505.7,392.0 L505.7,383.0 M505.7,18.1 L505.7,27.1  '/>	<g transform="translate(505.7,413.9)" stroke="none" fill="black" font-family="Arial" font-size="12.00"  text-anchor="middle">
		<text><tspan font-family="Arial" > 80</tspan></text>
	</g>
</g>
<g fill="none" color="black" stroke="currentColor" stroke-width="1.00" stroke-linecap="butt" stroke-linejoin="miter">
	<path stroke='black'  d='M563.2,392.0 L563.2,383.0 M563.2,18.1 L563.2,27.1  '/>	<g transform="translate(563.2,413.9)" stroke="none" fill="black" font-family="Arial" font-size="12.00"  text-anchor="middle">
		<text><tspan font-family="Arial" > 90</tspan></text>
	</g>
</g>
<g fill="none" color="black" stroke="currentColor" stroke-width="1.00" stroke-linecap="butt" stroke-linejoin="miter">
</g>
<g fill="none" color="black" stroke="currentColor" stroke-width="1.00" stroke-linecap="butt" stroke-linejoin="miter">
	<path stroke='black'  d='M45.6,18.1 L45.6,392.0 L615.0,392.0 L615.0,18.1 L45.6,18.1 Z  '/></g>
<g fill="none" color="black" stroke="currentColor" stroke-width="1.00" stroke-linecap="butt" stroke-linejoin="miter">
</g>
	<g id="gnuplot_plot_1" ><title>pages+cached+noexternal+nofonts</title>
<g fill="none" color="black" stroke="currentColor" stroke-width="1.00" stroke-linecap="butt" stroke-linejoin="miter">
	<g transform="translate(429.5,431.9)" stroke="none" fill="black" font-family="Arial" font-size="12.00"  text-anchor="end">
		<text><tspan font-family="Arial" >pages+cached+noexternal+nofonts</tspan></text>
	</g>
</g>
<g fill="none" color="black" stroke="currentColor" stroke-width="1.00" stroke-linecap="butt" stroke-linejoin="miter">
	<path stroke='rgb(148,   0, 211)'  d='M437.8,428.0 L480.0,428.0 M45.6,173.6 L51.4,206.5 L57.1,185.3 L62.9,163.6 L68.6,200.4 L74.4,207.1
		L80.1,174.5 L85.9,179.1 L91.6,184.2 L97.4,199.4 L103.1,162.8 L108.9,175.9 L114.6,190.0 L120.4,192.5
		L126.1,189.1 L131.9,188.7 L137.6,187.4 L143.4,194.4 L149.1,164.0 L154.9,186.7 L160.6,227.0 L166.4,206.8
		L172.1,313.6 L177.9,180.2 L183.6,167.9 L189.4,166.4 L195.1,170.3 L200.9,207.6 L206.6,214.6 L212.4,211.9
		L218.1,203.4 L223.9,205.3 L229.6,211.6 L235.4,154.6 L241.2,232.1 L246.9,172.4 L252.7,202.9 L258.4,216.1
		L264.2,163.2 L269.9,216.7 L275.7,202.0 L281.4,132.6 L287.2,219.7 L292.9,193.0 L298.7,216.9 L304.4,212.0
		L310.2,199.7 L315.9,183.3 L321.7,219.5 L327.4,168.7 L333.2,197.0 L338.9,239.9 L344.7,201.4 L350.4,179.8
		L356.2,186.2 L361.9,136.9 L367.7,159.2 L373.4,209.7 L379.2,181.9 L384.9,196.6 L390.7,233.6 L396.4,263.5
		L402.2,169.4 L407.9,201.1 L413.7,146.6 L419.4,204.0 L425.2,164.0 L431.0,216.2 L436.7,219.8 L442.5,187.6
		L448.2,222.6 L454.0,177.0 L459.7,121.8 L465.5,212.0 L471.2,223.1 L477.0,189.2 L482.7,183.2 L488.5,209.9
		L494.2,210.1 L500.0,147.6 L505.7,194.3 L511.5,199.0 L517.2,219.1 L523.0,205.9 L528.7,202.8 L534.5,157.1
		L540.2,173.8 L546.0,180.9 L551.7,217.1 L557.5,251.5 L563.2,192.4 L569.0,163.5 L574.7,221.6 L580.5,224.9
		L586.2,246.6 L592.0,175.6 L597.7,86.1 L603.5,198.8 L609.2,204.0 L615.0,208.0  '/></g>
	</g>
	<g id="gnuplot_plot_2" ><title>pages+cached+noexternal+nosvg</title>
<g fill="none" color="black" stroke="currentColor" stroke-width="1.00" stroke-linecap="butt" stroke-linejoin="miter">
	<g transform="translate(429.5,449.9)" stroke="none" fill="black" font-family="Arial" font-size="12.00"  text-anchor="end">
		<text><tspan font-family="Arial" >pages+cached+noexternal+nosvg</tspan></text>
	</g>
</g>
<g fill="none" color="black" stroke="currentColor" stroke-width="1.00" stroke-linecap="butt" stroke-linejoin="miter">
	<path stroke='rgb(  0, 158, 115)'  d='M437.8,446.0 L480.0,446.0 M45.6,331.7 L51.4,322.9 L57.1,297.5 L62.9,311.3 L68.6,368.9 L74.4,323.6
		L80.1,352.0 L85.9,339.0 L91.6,349.8 L97.4,345.5 L103.1,352.2 L108.9,25.3 L114.6,343.8 L120.4,342.7
		L126.1,313.7 L131.9,312.5 L137.6,334.2 L143.4,344.7 L149.1,352.0 L154.9,360.4 L160.6,354.3 L166.4,343.7
		L172.1,364.5 L177.9,315.9 L183.6,360.5 L189.4,339.4 L195.1,315.5 L200.9,339.8 L206.6,346.9 L212.4,384.8
		L218.1,367.2 L223.9,347.7 L229.6,327.7 L235.4,330.9 L241.2,361.5 L246.9,322.8 L252.7,292.1 L258.4,302.6
		L264.2,345.1 L269.9,365.2 L275.7,324.7 L281.4,308.0 L287.2,350.4 L292.9,358.1 L298.7,363.0 L304.4,360.1
		L310.2,331.9 L315.9,322.4 L321.7,345.4 L327.4,323.6 L333.2,340.9 L338.9,275.5 L344.7,354.1 L350.4,338.4
		L356.2,348.5 L361.9,273.6 L367.7,332.9 L373.4,337.0 L379.2,315.8 L384.9,336.1 L390.7,310.4 L396.4,368.4
		L402.2,330.3 L407.9,315.3 L413.7,330.7 L419.4,337.3 L425.2,345.9 L431.0,292.0 L436.7,343.3 L442.5,301.3
		L448.2,351.9 L454.0,348.8 L459.7,367.8 L465.5,310.9 L471.2,342.5 L477.0,336.5 L482.7,351.8 L488.5,352.6
		L494.2,339.5 L500.0,330.0 L505.7,311.5 L511.5,332.0 L517.2,337.0 L523.0,343.0 L528.7,325.6 L534.5,349.4
		L540.2,348.9 L546.0,328.3 L551.7,328.6 L557.5,371.8 L563.2,339.1 L569.0,355.4 L574.7,321.3 L580.5,347.0
		L586.2,364.1 L592.0,310.0 L597.7,346.6 L603.5,348.6 L609.2,335.2 L615.0,332.1  '/></g>
	</g>
	<g id="gnuplot_plot_3" ><title>score p10=1282</title>
<g fill="none" color="black" stroke="currentColor" stroke-width="1.00" stroke-linecap="butt" stroke-linejoin="miter">
	<g transform="translate(429.5,467.9)" stroke="none" fill="black" font-family="Arial" font-size="12.00"  text-anchor="end">
		<text><tspan font-family="Arial" >score p10=1282</tspan></text>
	</g>
</g>
<g fill="none" color="black" stroke="currentColor" stroke-width="1.00" stroke-linecap="butt" stroke-linejoin="miter">
	<path stroke='rgb( 86, 180, 233)'  d='M437.8,464.0 L480.0,464.0  '/></g>
	</g>
	<g id="gnuplot_plot_4" ><title>score median=3500</title>
<g fill="none" color="black" stroke="currentColor" stroke-width="1.00" stroke-linecap="butt" stroke-linejoin="miter">
	<g transform="translate(429.5,485.9)" stroke="none" fill="black" font-family="Arial" font-size="12.00"  text-anchor="end">
		<text><tspan font-family="Arial" >score median=3500</tspan></text>
	</g>
</g>
<g fill="none" color="black" stroke="currentColor" stroke-width="1.00" stroke-linecap="butt" stroke-linejoin="miter">
	<path stroke='rgb(230, 159,   0)'  d='M437.8,482.0 L480.0,482.0  '/></g>
	</g>
<g fill="none" color="#FFFFFF" stroke="rgb(230, 159,   0)" stroke-width="2.00" stroke-linecap="butt" stroke-linejoin="miter">
</g>
<g fill="none" color="black" stroke="currentColor" stroke-width="2.00" stroke-linecap="butt" stroke-linejoin="miter">
</g>
<g fill="none" color="black" stroke="black" stroke-width="1.00" stroke-linecap="butt" stroke-linejoin="miter">
</g>
<g fill="none" color="black" stroke="currentColor" stroke-width="1.00" stroke-linecap="butt" stroke-linejoin="miter">
	<path stroke='black'  d='M45.6,18.1 L45.6,392.0 L615.0,392.0 L615.0,18.1 L45.6,18.1 Z  '/></g>
<g fill="none" color="black" stroke="currentColor" stroke-width="1.00" stroke-linecap="butt" stroke-linejoin="miter">
</g>
</g>
</svg>
